packages/kaspersky-hexa-ui-icons/src/iconsSVGs/24/Youtube.svg

<svg width="24" height="24" viewBox="0 0 24 24" fill="none" xmlns="http://www.w3.org/2000/svg">
<path d="M21.4417 7.40625C21.2568 6.44409 20.3759 5.74341 19.3536 5.52466C17.8238 5.21875 14.9926 5 11.9293 5C8.86786 5 5.9913 5.21875 4.45967 5.52466C3.43919 5.74341 2.55646 6.39966 2.37158 7.40625C2.18488 8.5 2 10.0312 2 12C2 13.9688 2.18488 15.5 2.41689 16.5938C2.60359 17.5559 3.4845 18.2566 4.50499 18.4753C6.12906 18.7812 8.91318 19 11.9764 19C15.0397 19 17.8238 18.7812 19.4479 18.4753C20.4684 18.2566 21.3493 17.6003 21.536 16.5938C21.7209 15.5 21.9529 13.9243 22 12C21.9057 10.0312 21.6737 8.5 21.4417 7.40625ZM9.42432 15.0625V8.9375L15.085 12L9.42432 15.0625Z" fill="black"/>
</svg>

<svg xmlns="http://www.w3.org/2000/svg" width="24" height="24" fill="none" viewBox="0 0 24 24"><path fill="#000" d="M21.4417 7.4063c-.1849-.9622-1.0658-1.6629-2.0881-1.8816C17.8238 5.2187 14.9926 5 11.9293 5c-3.0614 0-5.938.2188-7.4696.5247-1.0205.2187-1.9032.875-2.0881 1.8816C2.1849 8.5 2 10.0312 2 12s.1849 3.5.4169 4.5938c.1867.9621 1.0676 1.6628 2.088 1.8815 1.6242.3059 4.4083.5247 7.4715.5247s5.8474-.2188 7.4715-.5247c1.0205-.2187 1.9014-.875 2.0881-1.8815.1849-1.0938.4169-2.6695.464-4.5938-.0943-1.9688-.3263-3.5-.5583-4.5937M9.4243 15.0625v-6.125L15.085 12z"/></svg>
